en/_assets/tracker/svg/filter-mobile.svg

<svg width="20" height="20" viewBox="0 0 20 20" fill="none" xmlns="http://www.w3.org/2000/svg">
<path d="M16.873 1.125H3.09374C1.66601 1.125 0.93554 2.85156 1.96484 3.84766L7.34374 9.22656V14.9375C7.34374 15.4688 7.57617 15.9336 7.9746 16.2656L10.0996 17.8594C11.1289 18.5566 12.6562 17.8926 12.6562 16.5645V9.22656L18.0019 3.84766C19.0312 2.85156 18.3008 1.125 16.873 1.125ZM11.0625 8.5625V16.5312L8.93749 14.9375V8.5625L3.09374 2.71875H16.9062L11.0625 8.5625Z" fill="black" fill-opacity="0.85"/>
</svg>

<svg xmlns="http://www.w3.org/2000/svg" width="20" height="20" fill="none"><path fill="#000" fill-opacity=".85" d="M16.873 1.125H3.093c-1.427 0-2.157 1.727-1.128 2.723l5.379 5.379v5.71c0 .532.232.997.63 1.329l2.126 1.593c1.029.698 2.556.034 2.556-1.295V9.227l5.346-5.38c1.03-.995.299-2.722-1.129-2.722Zm-5.81 7.438v7.968l-2.126-1.593V8.561L3.094 2.72h13.812l-5.843 5.844Z"/></svg>
